packages/core/src/svgs/hilo.svg

<svg width="24" height="24" viewBox="0 0 24 24" fill="none" xmlns="http://www.w3.org/2000/svg">
<g clip-path="url(#clip0_31_11439)">
<path d="M0 0H24V24H0V0Z" fill="url(#paint0_linear_31_11439)"/>
<path d="M16.6158 6.36022C17.459 7.05373 18.1364 7.92709 18.5984 8.91633C19.0604 9.90556 19.2952 10.9856 19.2858 12.0774L19.2172 12.9045C19.004 14.6192 18.1884 16.2024 16.9158 17.3713C15.6433 18.5402 13.9967 19.2188 12.27 19.2859C10.8137 19.3274 9.37752 18.9375 8.14219 18.165C6.90685 17.3925 5.92747 16.2721 5.32719 14.9445C4.86507 13.894 4.6572 12.7493 4.72044 11.6034C4.78369 10.4575 5.11627 9.34268 5.69118 8.34941C6.2661 7.35615 7.06714 6.51246 8.02928 5.88685C8.99142 5.26123 10.0875 4.87133 11.2286 4.74879C13.2558 4.56879 15.0515 5.1045 16.62 6.36022H16.6158ZM5.60147 12.0774C5.60147 12.5059 5.64433 12.9345 5.73433 13.3674C6.06289 14.7985 6.86681 16.0759 8.0149 16.9913C9.16299 17.9066 10.5874 18.4058 12.0558 18.4074C13.7242 18.3704 15.3142 17.692 16.4954 16.5131C17.6766 15.3343 18.3582 13.7457 18.3986 12.0774C18.4011 10.3771 17.7353 8.74403 16.5448 7.53022C15.3542 6.31641 13.7343 5.61915 12.0343 5.58879C8.52005 5.56307 5.5629 8.54593 5.59719 12.0774H5.60147ZM12.7929 8.7945C12.8958 8.86307 12.9943 8.94022 13.08 9.03022L14.9743 10.9802L14.9829 10.9888C15.1652 11.1515 15.3163 11.3461 15.4286 11.5631L15.4243 11.5674H14.4129C14.4049 11.5677 14.397 11.5664 14.3896 11.5634C14.3822 11.5605 14.3755 11.556 14.37 11.5502L14.2115 11.3831L13.14 10.2774C12.9986 10.1402 12.8615 9.9945 12.72 9.84879C12.4115 9.52736 12.1629 9.29164 11.7472 9.47164C11.6443 9.5145 11.5286 9.6045 11.3915 9.74593L9.64719 11.5459C9.64169 11.5517 9.63501 11.5562 9.62762 11.5591C9.62023 11.5621 9.61229 11.5634 9.60433 11.5631L9.4629 11.5716H8.60576L8.58862 11.5674C8.58512 11.5652 8.58218 11.5623 8.58005 11.5588C8.57741 11.5542 8.57603 11.5491 8.57603 11.5438C8.57603 11.5385 8.57741 11.5333 8.58005 11.5288C8.64015 11.4275 8.71052 11.3328 8.79005 11.2459C9.42433 10.5774 10.0629 9.91307 10.71 9.24879C10.95 9.0045 11.13 8.84164 11.2543 8.77736C11.4892 8.64108 11.7566 8.57074 12.0281 8.57376C12.2997 8.57677 12.5654 8.65304 12.7972 8.7945H12.7929ZM9.57862 12.4288H8.5929C8.58958 12.4288 8.5863 12.4296 8.58332 12.431C8.58034 12.4325 8.57776 12.4347 8.57576 12.4374C8.57388 12.4406 8.57289 12.4443 8.57289 12.4481C8.57289 12.4518 8.57388 12.4555 8.57576 12.4588C8.69147 12.6859 8.88433 12.8788 9.06005 13.0588L9.08576 13.0802L10.6415 14.6831C10.8339 14.8971 11.0528 15.0858 11.2929 15.2445C11.7215 15.4845 12.1929 15.4888 12.7029 15.2616C12.8443 15.1759 12.96 15.0945 13.0372 15.0131C13.7582 14.2712 14.4782 13.5284 15.1972 12.7845C15.2892 12.6858 15.3671 12.5747 15.4286 12.4545C15.4285 12.4501 15.4272 12.4459 15.425 12.4421C15.4227 12.4384 15.4195 12.4353 15.4158 12.4331H14.4258C14.4099 12.4323 14.394 12.435 14.3792 12.4409C14.3644 12.4468 14.3511 12.4559 14.34 12.4674L12.9386 13.9116L12.8529 14.0059C12.6815 14.1988 12.4672 14.4431 12.2743 14.5245C11.9958 14.6445 11.7043 14.5674 11.4858 14.3488L10.8729 13.7145L9.65576 12.4588C9.64524 12.4478 9.63259 12.4391 9.61859 12.4332C9.60459 12.4273 9.58953 12.4244 9.57433 12.4245L9.57862 12.4288Z" fill="white"/>
</g>
<defs>
<linearGradient id="paint0_linear_31_11439" x1="6.66113e-08" y1="4.14857" x2="18.21" y2="24" gradientUnits="userSpaceOnUse">
<stop stop-color="#4A5DCD"/>
<stop offset="0.11" stop-color="#4A53C4"/>
<stop offset="0.47" stop-color="#3D065D"/>
<stop offset="1" stop-color="#C772AD"/>
</linearGradient>
<clipPath id="clip0_31_11439">
<rect width="24" height="24" fill="white"/>
</clipPath>
</defs>
</svg>

<svg xmlns="http://www.w3.org/2000/svg" width="24" height="24" fill="none" viewBox="0 0 24 24"><g clip-path="url(#a)"><path fill="url(#b)" d="M0 0h24v24H0z"/><path fill="#fff" d="M16.616 6.36a7.32 7.32 0 0 1 2.67 5.717l-.069.828a7.286 7.286 0 0 1-6.947 6.38 7.39 7.39 0 0 1-6.943-4.34A7.3 7.3 0 0 1 11.23 4.749q3.04-.27 5.391 1.611zM5.6 12.077q-.001.642.133 1.29a6.49 6.49 0 0 0 6.322 5.04 6.49 6.49 0 0 0 6.343-6.33 6.48 6.48 0 0 0-6.365-6.488c-3.514-.026-6.471 2.957-6.437 6.488zm7.192-3.283q.156.103.287.236l1.894 1.95.009.009c.182.162.333.357.446.574l-.005.004h-1.011a.06.06 0 0 1-.043-.017l-.159-.167-1.071-1.106q-.21-.207-.42-.428c-.309-.322-.557-.557-.973-.377-.103.043-.218.133-.355.274l-1.745 1.8a.056.056 0 0 1-.043.017l-.141.009h-.857l-.017-.005-.009-.008a.03.03 0 0 1 0-.03q.09-.152.21-.283.95-1.002 1.92-1.997c.24-.245.42-.407.544-.472a1.51 1.51 0 0 1 1.543.018zM9.579 12.43h-.986q-.005 0-.01.002l-.007.006a.02.02 0 0 0 0 .022c.115.227.308.42.484.6l.026.021 1.556 1.603q.289.322.65.562.645.359 1.41.017a1.7 1.7 0 0 0 .335-.249q1.082-1.113 2.16-2.229.139-.149.232-.33a.03.03 0 0 0-.013-.02h-.99a.11.11 0 0 0-.086.033l-1.401 1.445-.086.094c-.171.193-.386.437-.579.518-.278.12-.57.043-.788-.175l-.613-.635-1.217-1.255a.11.11 0 0 0-.082-.034z"/></g><defs><linearGradient id="b" x1="0" x2="18.21" y1="4.149" y2="24" gradientUnits="userSpaceOnUse"><stop stop-color="#4A5DCD"/><stop offset=".11" stop-color="#4A53C4"/><stop offset=".47" stop-color="#3D065D"/><stop offset="1" stop-color="#C772AD"/></linearGradient><clipPath id="a"><path fill="#fff" d="M0 0h24v24H0z"/></clipPath></defs></svg>
